!!!SOCIAL_FUNCTION:	songs of social dances
!!!PDT:	1958
!!!OTL: No_13_Social_Dance_Song_(a).krn
!!!REG: Northern California
!!!LANG: Non-Tone
!!!LING_GROUP: Penutian
**kern
*staff1
=1-
*clefF4
*k[b-e-]
*M3/4
4r
8c\L
8c\J
8c\L
16B-\Jk
16r
=2
8B-\L
8B-\J
8c\L
8B-\J
8B-\
8r
=3
8F\L
8F\J
8c\L
8c\J
(8c\L
16B-\Jk)
16r
=4
8B-\L
8B-\J
8c\L
8B-\J
8B-\
8r
=5
8F\L
8F\J
8c\L
8c\J
(8c\L
16B-\Jk)
16r
=6
8B-\L
8B-\J
8c\L
8B-\J
8B-\
8r
=7!|:
8F\L
8F\J
8f\L
8f\J
8f\
8r
=8
16d\LL
16d\J
8c\J
8d\L
8B-\J
8B-\
8r
=9
8F\L
8F\J
8f\L
8f\J
8f\
8r
=10
16d\LL
16d\J
8c\J
8d\L
8B-\J
8B-\
8r
=11
8F\L
8F\J
8c\L
8c\J
(8c\L
16B-\Jk)
16r
=12
8B-\L
8B-\J
8c\L
8B-\J
8B-\
8r
=13
8F\L
8F\J
8c\L
8c\J
(8c\L
16B-\Jk)
16r
=14
8B-\L
8B-\J
8c\L
8B-\J
8B-\
8r
==:|!
*-
